X:1
T:Title
%%score { 1 | 2 }
L:1/8
M:4/4
K:Eb
V:1 treble nm="Grand Piano"
V:2 bass 
V:1
 z4 z2[Q:1/4=110] [B,GB]2 | [B,FA]2 [B,EG]2 [A,DF]2 [B,DG]2 | [A,DF]4 E2 G2 | A2 c2 c2 A2 | G6 B2 | %5
 A2 G2 F2 G2 | [A,DF]3 [A,DF] [G,E]2 [B,EG]2 | [B,FA]2 [B,EG]2 [B,EF]2 [A,DF]2 | E6 B2 | %9
 c2 A2 e2 c2 | B4 G2 B2 | c2 A2 e2 c2 | B6 B2 | B2 =A2 A2 c2 | c3 B B2 d2 | [Fd]2 c2 B2 =A2 | %16
[M:3/4] [DB]6 |[M:1/4] [GB]2 |[M:4/4] [FA]2 [EG]2 [DF]2 [DG]2 | [DF]4 E2 B2 | c2 e2 d2 c2 | %21
 c4 B2 B2 | e3 G G2 G2 | c2 B2 B2 G2 | [B,FA]2 [B,EG]2 [B,EF]2 [A,DF]2 |[M:3/4] [G,E]6 |] %26
V:2
 z4 z2 E,2 | B,,2 A,,2 B,,2 B,,2 | B,,4 [E,G,]2 [E,B,E]2 | [A,CE]2 [A,E]2 [A,E]2 [A,CE]2 | %4
 [E,B,E]6 [G,B,E]2 | [F,B,D]2 [E,B,E]2 [D,B,]2 [E,B,E]2 | B,,3 B,, E,2 E,2 | D,2 E,2 B,,2 B,,2 | %8
 [E,G,]6 [E,G,E]2 | [A,E]2 [A,CE]2 [A,CE]2 [A,E]2 | [E,G,E]4 [E,B,E]2 [E,G,E]2 | %11
 [A,E]2 [A,CE]2 [A,CE]2 [A,E]2 | [E,G,E]6 [E,G,E]2 | [F,D]2 [F,C]2 [F,C]2 [F,A,E]2 | %14
 [B,E]3 [B,D] [B,D]2 [B,F]2 | [D,B,]2 [E,G,E]2 [F,D]2 [F,C]2 |[M:3/4] [B,,F,]6 |[M:1/4] [B,,B,]2 | %18
[M:4/4] [B,,B,]2 [B,,B,]2 [B,,A,]2 [B,,B,]2 | [B,,A,]4 [E,G,]2 [E,G,E]2 | %20
 [A,E]2 [A,CE]2 [A,B,E]2 [A,E]2 | [E,A,E]4 [E,G,E]2 [E,G,E]2 | [E,G,E]3 [E,B,E] [E,B,E]2 [E,B,E]2 | %23
 [E,A,E]2 [E,G,E]2 [E,G,E]2 [E,B,E]2 | D,2 E,2 B,,2 B,,2 |[M:3/4] E,6 |] %26

